icon-themes/sifr_svg/cmd/sc_iconsetformatdialog.svg

<svg viewBox="0 0 16 16" xmlns="http://www.w3.org/2000/svg"><g fill="#555753"><path d="m2 2v3h3v-3zm0 5v3h3v-3zm1 1h1v1h-1zm-1 4v3h3v-3z"/><path d="m5 2v3h9v-3zm0 5v3h9v-3zm0 5v3h9v-3z" opacity=".35"/></g></svg>

<svg xmlns="http://www.w3.org/2000/svg" viewBox="0 0 16 16">
  <path
     style="fill:#555753"
     d="M 2 2 L 2 5 L 5 5 L 5 2 L 2 2 z M 2 7 L 2 10 L 5 10 L 5 7 L 2 7 z M 3 8 L 4 8 L 4 9 L 3 9 L 3 8 z M 2 12 L 2 15 L 5 15 L 5 12 L 2 12 z "
     />
  <path
     style="opacity:0.35;fill:#555753"
     d="M 5 2 L 5 5 L 14 5 L 14 2 L 5 2 z M 5 7 L 5 10 L 14 10 L 14 7 L 5 7 z M 5 12 L 5 15 L 14 15 L 14 12 L 5 12 z "
     />
</svg>
